X:1
T:Wake Ev'ry Breath
C:William Billings
M:3/2
L:1/2
Q:1/2=100
K:Bb
%%MIDI program 1 41 % Viola
%%MIDI program 2 41 % Viola
%%MIDI program 3 41 % Viola
%%MIDI program 4 41 % Viola
V:1
B|(d/>e/d)c|(B/>c/d)e|(f/>e/d)c|B2
B|B2F|(G/>A/B)G|(FB)F|B2
d|f2f|(d/>c/B)B|(d/>e/f)f|f2
B|(d/>e/f)f|(gf)(3(B/c/d/)|(cB)(3(A/B/c/)|(d/>c/B)
d|(BF)F|(B/>c/d)B|(AB)(3(c/B/A/)|(B/>c/d)
d|(f/e/d/c/)(B/A/)|(B/c/d/e/)(f/e/)|(d/f/B/d/)(3(c/B/A/)|B2
V:Ground clef=bass
B,|B,2F,|(G,/>A,/B,)G,|(F,B,)F,|B,,2

%%textfont monospace
%%begintext
Ground:
1|115|616|515|11
Round:
1|332|134|532|11
1|115|616|515|11
3|555|311|355|55
1|355|65x|21x|31
3|155|131|71x|13
3|531|135|31x|11
%%endtext

